X:1
T:MfCH 05.08
M:4/4
L:1/8
K:G
eABe gfeB | eABe gfeb | adeg d'c'ba | g4 a2z2 | 
ebge gfeg | ebge gfeg | ec'ae fd'bf | ge'c'g af'd'b |
bg'f'e' d'2z2 | g'd'c'a f'c'bg | d'4 z4 | bged eeag | 
c'afd efag | d'bag bbd'd' | e'c'ba f'2e'd' | g'8  |]
